X: 173
T: Pan zhangfu
L: 1/16
M: 2/4
K: G
e2 e2 d e d B [I:setbarnb 1]| 
A8 | 
d2 d E G A G E | 
D8 | 
G2 G EA4 | 
B d B A E2 E G | 
A2 A B G A G E | 
D8 | 
e2 e dB4 | 
e g e dB4 | 
A B A G E G D E | 
G8 | 
e2 e dB4 | 
A B A GE4 | 
A2 d d G A G E | 
D8 | 
G2 G A B d B A | 
G2G6 | 
G2 G A B d B A | 
G2G6 | 
e2 e dB4 | 
A B A G E2 E2 | 
A2 d d G A G E | 
D8 |]

@@@ Tune index: 9047
